X: 2
T: My Lagan Love
R: polka
M: 2/4
L: 1/8
K: Cmaj
3de/f/| g3d cB/G/| F3G Bc/d/|c3B (G>G| G3)d/e/ fe/f/|
g3d cB/G/|F3G Bc/d/|c3B G>G|G3G Bc|
e3d dc/B/|c4 ef|g3c ed/e/|^fg g_b g=f|
g3d (3cBG|F3G Bc/d/|c3B G>G|G4||


Tune 2652	Setting 2652

